Arcticons/scalable/apps/luca.svg

<svg viewBox="0 0 48 48" xmlns="http://www.w3.org/2000/svg">
 <defs>
  <style>.a{fill:none;stroke:#fff;stroke-linecap:round;stroke-linejoin:round;}</style>
 </defs>
 <path class="a" d="m10.462 17.871v9.625a1.2991 1.2991 0 0 0 1.375 1.375h0.413"/>
 <path class="a" d="m28.3847 27.496a2.6615 2.6615 0 0 1-2.3375 1.375 2.7581 2.7581 0 0 1-2.75-2.75v-1.7875a2.7581 2.7581 0 0 1 2.75-2.75 2.6615 2.6615 0 0 1 2.3375 1.375"/>
 <path class="a" d="m19.9734 26.1211a2.7581 2.7581 0 0 1-2.75 2.75 2.7581 2.7581 0 0 1-2.75-2.75v-4.5374"/>
 <path class="a" d="m21.0734 28.871a1.1827 1.1827 0 0 1-1.1-1.1v-6.1873"/>
 <path class="a" d="m36.438 26.1211a2.758 2.758 0 0 1-2.75 2.75 2.7581 2.7581 0 0 1-2.75-2.75v-1.7875a2.758 2.758 0 0 1 2.75-2.75 2.758 2.758 0 0 1 2.75 2.75"/>
 <path class="a" d="m37.538 28.871a1.1828 1.1828 0 0 1-1.1-1.1v-6.1873"/>
 <path class="a" d="m40.5 42.5h-33a2.0059 2.0059 0 0 1-2-2v-33a2.0059 2.0059 0 0 1 2-2h33a2.0059 2.0059 0 0 1 2 2v33a2.0059 2.0059 0 0 1-2 2z"/>
</svg>

<svg xmlns="http://www.w3.org/2000/svg" viewBox="0 0 48 48"><defs><style>.a{fill:none;stroke:#fff;stroke-linecap:round;stroke-linejoin:round;}</style></defs><path class="a" d="M10.462,17.871v9.625a1.2991,1.2991,0,0,0,1.375,1.375H12.25"/><path class="a" d="M28.3847,27.496a2.6615,2.6615,0,0,1-2.3375,1.375h0a2.7581,2.7581,0,0,1-2.75-2.75V24.3335a2.7581,2.7581,0,0,1,2.75-2.75h0a2.6615,2.6615,0,0,1,2.3375,1.375"/><path class="a" d="M19.9734,26.1211a2.7581,2.7581,0,0,1-2.75,2.75h0a2.7581,2.7581,0,0,1-2.75-2.75V21.5837"/><path class="a" d="M21.0734,28.871a1.1827,1.1827,0,0,1-1.1-1.1V21.5837"/><path class="a" d="M36.438,26.1211a2.758,2.758,0,0,1-2.75,2.75h0a2.7581,2.7581,0,0,1-2.75-2.75V24.3336a2.758,2.758,0,0,1,2.75-2.75h0a2.758,2.758,0,0,1,2.75,2.75"/><path class="a" d="M37.538,28.871a1.1828,1.1828,0,0,1-1.1-1.1V21.5837"/><path class="a" d="M40.5,42.5H7.5a2.0059,2.0059,0,0,1-2-2V7.5a2.0059,2.0059,0,0,1,2-2h33a2.0059,2.0059,0,0,1,2,2v33A2.0059,2.0059,0,0,1,40.5,42.5Z"/></svg>
